apps/scalable/babe.svg

<svg height="48" width="48" xmlns="http://www.w3.org/2000/svg"><path d="m44.322082 27.405077a19.729762 19.729765 0 0 1 -19.729762 19.729765 19.729762 19.729765 0 0 1 -19.7297621-19.729765 19.729762 19.729765 0 0 1 19.7297621-19.7297632 19.729762 19.729765 0 0 1 19.729762 19.7297632z" fill="#eb7c9b" opacity=".99" transform="matrix(1.1503549 0 0 1.1503549 -4.486125 -7.525565)"/><path d="m14.285714 15.142857v3h5v-3zm13 0v3h5v-3zm-20 2v3h5v-3zm27 0v3h5v-3zm-13.5 2v3h5v-3zm-6.5 1v3h5v-3zm13 0v3h5v-3zm-20 2v3h5v-3zm27 0v3h5v-3zm-13.5 2v3h5v-3zm-6.5 1v3h5v-3zm13 0v3h5v-3zm-20 2v3h5v-3zm27 0v3h5v-3zm-13.5 2v3h5v-3zm-6.5 1v3h5v-3zm13 0v3h5v-3zm-6.5 4v3h5v-3z" fill="#ffffffbfb"/></svg>

<?xml version="1.0" encoding="UTF-8" standalone="no"?>
<svg
   height="48"
   width="48"
   version="1.1"
   id="svg6"
   sodipodi:docname="babe.svg"
   inkscape:version="1.1.2 (0a00cf5339, 2022-02-04)"
   xmlns:inkscape="http://www.inkscape.org/namespaces/inkscape"
   xmlns:sodipodi="http://sodipodi.sourceforge.net/DTD/sodipodi-0.dtd"
   xmlns="http://www.w3.org/2000/svg"
   xmlns:svg="http://www.w3.org/2000/svg">
  <defs
     id="defs10" />
  <sodipodi:namedview
     id="namedview8"
     pagecolor="#ffffff"
     bordercolor="#666666"
     borderopacity="1.0"
     inkscape:pageshadow="2"
     inkscape:pageopacity="0.0"
     inkscape:pagecheckerboard="0"
     showgrid="false"
     inkscape:zoom="5.8336309"
     inkscape:cx="28.541401"
     inkscape:cy="36.255293"
     inkscape:window-width="1920"
     inkscape:window-height="1029"
     inkscape:window-x="0"
     inkscape:window-y="0"
     inkscape:window-maximized="1"
     inkscape:current-layer="svg6" />
  <path
     id="path2"
     style="stroke-width:1.15035;fill:#b48ead;fill-opacity:1"
     d="M 23.804688 1.3046875 A 22.696228 22.696232 0 0 0 1.1074219 24 A 22.696228 22.696232 0 0 0 23.804688 46.695312 A 22.696228 22.696232 0 0 0 46.5 24 A 22.696228 22.696232 0 0 0 23.804688 1.3046875 z " />
  <path
     id="path4"
     d="M 14.285156 15.142578 L 14.285156 18.142578 L 19.285156 18.142578 L 19.285156 15.142578 L 14.285156 15.142578 z M 27.285156 15.142578 L 27.285156 18.142578 L 32.285156 18.142578 L 32.285156 15.142578 L 27.285156 15.142578 z M 7.2851562 17.142578 L 7.2851562 20.142578 L 12.285156 20.142578 L 12.285156 17.142578 L 7.2851562 17.142578 z M 34.285156 17.142578 L 34.285156 20.142578 L 39.285156 20.142578 L 39.285156 17.142578 L 34.285156 17.142578 z M 20.785156 19.142578 L 20.785156 22.142578 L 25.785156 22.142578 L 25.785156 19.142578 L 20.785156 19.142578 z M 14.285156 20.142578 L 14.285156 23.142578 L 19.285156 23.142578 L 19.285156 20.142578 L 14.285156 20.142578 z M 27.285156 20.142578 L 27.285156 23.142578 L 32.285156 23.142578 L 32.285156 20.142578 L 27.285156 20.142578 z M 7.2851562 22.142578 L 7.2851562 25.142578 L 12.285156 25.142578 L 12.285156 22.142578 L 7.2851562 22.142578 z M 34.285156 22.142578 L 34.285156 25.142578 L 39.285156 25.142578 L 39.285156 22.142578 L 34.285156 22.142578 z M 20.785156 24.142578 L 20.785156 27.142578 L 25.785156 27.142578 L 25.785156 24.142578 L 20.785156 24.142578 z M 14.285156 25.142578 L 14.285156 28.142578 L 19.285156 28.142578 L 19.285156 25.142578 L 14.285156 25.142578 z M 27.285156 25.142578 L 27.285156 28.142578 L 32.285156 28.142578 L 32.285156 25.142578 L 27.285156 25.142578 z M 7.2851562 27.142578 L 7.2851562 30.142578 L 12.285156 30.142578 L 12.285156 27.142578 L 7.2851562 27.142578 z M 34.285156 27.142578 L 34.285156 30.142578 L 39.285156 30.142578 L 39.285156 27.142578 L 34.285156 27.142578 z M 20.785156 29.142578 L 20.785156 32.142578 L 25.785156 32.142578 L 25.785156 29.142578 L 20.785156 29.142578 z M 14.285156 30.142578 L 14.285156 33.142578 L 19.285156 33.142578 L 19.285156 30.142578 L 14.285156 30.142578 z M 27.285156 30.142578 L 27.285156 33.142578 L 32.285156 33.142578 L 32.285156 30.142578 L 27.285156 30.142578 z M 20.785156 34.142578 L 20.785156 37.142578 L 25.785156 37.142578 L 25.785156 34.142578 L 20.785156 34.142578 z "
     style="fill:#ffffff;fill-opacity:1" />
</svg>
